X:168
M:9/8
L:1/8
K:C
E/F/GG G2c GEC|E/F/GG GAB c2e|E/F/GG G2c GEC|D2_B BFD F2||g|
ecg eca gec|ecg eca f2a|ecg eca gec|_B2_b bfd f2g|ecg eca gec|ecg eca f2
a|
gfe dcB cGE|D/E/FD _BFD F2||

